epam-assets/icon-sources/18/editor-breakline.svg

<svg width="18" height="18" viewBox="0 0 18 18" fill="none" xmlns="http://www.w3.org/2000/svg">
<g id="18/editor-breakline">
<g id="icon">
<path d="M13.5 1.5C14.3284 1.5 15 2.17157 15 3V6H13.5V3H4.5V6H3V3C3 2.17157 3.67157 1.5 4.5 1.5H13.5Z" fill="#6C6F80"/>
<path d="M13.5 12H15V15C15 15.8284 14.3284 16.5 13.5 16.5H4.5C3.67157 16.5 3 15.8284 3 15V12H4.5V15H13.5V12Z" fill="#6C6F80"/>
<path d="M17.25 8.25H0.75V9.75H17.25V8.25Z" fill="#6C6F80"/>
</g>
</g>
</svg>

<svg xmlns="http://www.w3.org/2000/svg" width="18" height="18" fill="none" viewBox="0 0 18 18">
  <path fill="#6C6F80" d="M13.5 1.5A1.5 1.5 0 0 1 15 3v3h-1.5V3h-9v3H3V3a1.5 1.5 0 0 1 1.5-1.5h9Zm0 10.5H15v3a1.5 1.5 0 0 1-1.5 1.5h-9A1.5 1.5 0 0 1 3 15v-3h1.5v3h9v-3Zm3.75-3.75H.75v1.5h16.5v-1.5Z"/>
</svg>
